src/components/Icon/svg-icon/main/formatting-code.svg

<svg xmlns="http://www.w3.org/2000/svg" width="24" height="24"><path fill="#677078" d="M9.4 16.6L4.8 12l4.6-4.6L8 6l-6 6 6 6 1.4-1.4zm5.2 0l4.6-4.6-4.6-4.6L16 6l6 6-6 6-1.4-1.4z"/></svg>

<svg xmlns="http://www.w3.org/2000/svg" width="24" height="24" viewBox="0 0 24 24">
  <path fill="#677078" d="M9.4,16.6 L4.8,12 L9.4,7.4 L8,6 L2,12 L8,18 L9.4,16.6 Z M14.6,16.6 L19.2,12 L14.6,7.4 L16,6 L22,12 L16,18 L14.6,16.6 L14.6,16.6 Z"/>
</svg>
